X:1
T:Title
%%score { ( 1 3 ) | ( 2 4 ) }
L:1/8
M:6/8
K:Bb
V:1 treble nm="Grand Piano"
V:3 treble 
V:2 bass 
V:4 bass 
V:1
 z3 z2[Q:1/4=81] [DF] | [Fd][Fc][FB] cBG | [DF][B,D][EG] [DF]2 [DF] | [EG][FA][FB] [DF][DB][Fd] | %4
 c3- c2 F | [Fd][Fc][FB] cBG |[M:5/8] [DF][B,D][EG] [DF]2 |[M:1/8] F | %8
[M:3/4] G[Ge] [Gd][Gc] [EG][EA] |[M:5/8] [DB]-[DB]- [DB]3 |[M:1/8] F |[M:3/4] z2 z .c3 | %12
 dB G .[DF]3 | [DF][_D=E] [=DF] G3 | AG A B3 | BB Bc cc | [Fd][Fc] [_AB] [Ge]2 G | FB dc GA | %18
[M:5/8] [DB]-[DB]- [DB]3 |] %19
V:2
 z3 z2 [B,,B,] | [B,,B,][C,A,][D,B,] [E,G,E][E,G,E][E,B,E] | %2
 [B,,B,][B,,F,][B,,B,] [B,,B,]2 [B,,B,] | [E,B,][E,C][D,B,] [B,,B,][B,,F,][B,,B,] | %4
 [F,A,F]3- [F,A,F]2 [F,A,] | [B,,B,][C,A,][D,B,] [E,G,E][E,G,E][E,B,E] | %6
[M:5/8] [B,,B,][B,,F,][B,,B,] [B,,B,]2 |[M:1/8] [D,B,] | %8
[M:3/4] [E,B,E][C,C] [D,=B,][E,C] [E,C][F,C] |[M:5/8] [B,,B,]-[B,,B,]- [B,,B,]3 |[M:1/8] [F,E] | %11
[M:3/4] z2 z F z2[K:treble] | [B,F][K:bass][B,D] [B,E] .[B,,B,]3 | %13
 [B,,B,][B,,B,] [B,,B,] [E,B,E]3 | [F,E][F,CE] [F,CE] [B,D]3 | %15
 [B,D][B,D] [B,D][F,A,F] [F,A,F][F,A,F] | [B,,B,][C,B,] [D,B,] [E,B,]2 [E,B,E] | %17
 [F,B,D][F,DF] [F,B,F][F,A,E] [F,B,E][F,CE] |[M:5/8] [B,,B,]-[B,,B,]- [B,,B,]3 |] %19
V:3
 x6 | x6 | x6 | x6 | x6 | x6 |[M:5/8] x5 |[M:1/8] x |[M:3/4] x6 |[M:5/8] x5 |[M:1/8] x | %11
[M:3/4] cc .c2 EB | x6 | x6 | x6 | x6 | x6 | x6 |[M:5/8] x5 |] %19
V:4
 x6 | x6 | x6 | x6 | x6 | x6 |[M:5/8] x5 |[M:1/8] x |[M:3/4] x6 |[M:5/8] x5 |[M:1/8] x | %11
[M:3/4] [F,A,F][F,A,F] [F,A,F] [F,A,]2[K:treble] [B,D] | x[K:bass] x5 | x6 | x6 | x6 | x6 | x6 | %18
[M:5/8] x5 |] %19

